src/svg/area/area-juventud.svg

<?xml version="1.0" encoding="UTF-8" standalone="no"?>
<!-- Generado por Andres Lacquaniti  -->

<svg
   xmlns:dc="http://purl.org/dc/elements/1.1/"
   xmlns:cc="http://creativecommons.org/ns#"
   xmlns:rdf="http://www.w3.org/1999/02/22-rdf-syntax-ns#"
   xmlns:svg="http://www.w3.org/2000/svg"
   xmlns="http://www.w3.org/2000/svg"
   xmlns:sodipodi="http://sodipodi.sourceforge.net/DTD/sodipodi-0.dtd"
   xmlns:inkscape="http://www.inkscape.org/namespaces/inkscape"
   version="1.1"
   id="Layer_1"
   x="0px"
   y="0px"
   width="15px"
   height="15px"
   viewBox="0 0 15 15"
   style="enable-background:new 0 0 15 15;"
   xml:space="preserve"
   sodipodi:docname="area-juventud.svg"
   inkscape:version="0.92.0 r15299"><metadata
     id="metadata9"><rdf:RDF><cc:Work
         rdf:about=""><dc:format>image/svg+xml</dc:format><dc:type
           rdf:resource="http://purl.org/dc/dcmitype/StillImage" /><dc:title></dc:title></cc:Work></rdf:RDF></metadata><defs
     id="defs7" /><sodipodi:namedview
     pagecolor="#ffffff"
     bordercolor="#666666"
     borderopacity="1"
     objecttolerance="10"
     gridtolerance="10"
     guidetolerance="10"
     inkscape:pageopacity="0"
     inkscape:pageshadow="2"
     inkscape:window-width="1920"
     inkscape:window-height="996"
     id="namedview5"
     showgrid="false"
     inkscape:zoom="22.250293"
     inkscape:cx="20.068655"
     inkscape:cy="0.55206732"
     inkscape:window-x="-8"
     inkscape:window-y="-8"
     inkscape:window-maximized="1"
     inkscape:current-layer="Layer_1" /><path
     style="fill:#000000;fill-opacity:1;fill-rule:nonzero;stroke:none;stroke-width:0.41143253"
     d="M 9.2597656 0.51171875 C 8.3418596 0.51171875 7.5976562 1.1089315 7.5976562 1.84375 C 7.5976562 2.5802142 8.3418596 3.1757812 9.2597656 3.1757812 C 9.2618256 3.1757812 9.2646981 3.1738281 9.2675781 3.1738281 C 9.4189853 3.7243206 10.042969 3.7304688 10.042969 3.7304688 C 10.042969 3.7304685 9.8662315 3.3155735 10.085938 2.9921875 C 10.582947 2.7621967 10.921875 2.3378804 10.921875 1.84375 C 10.921875 1.1089315 10.177672 0.51171875 9.2597656 0.51171875 z M 5.4316406 0.54882812 C 4.5404778 0.54882812 3.8203125 1.1260082 3.8203125 1.8398438 C 3.8203125 2.3187513 4.1462958 2.7324931 4.6289062 2.9550781 C 4.7663246 3.3311274 4.6054688 3.6699219 4.6054688 3.6699219 C 4.6054688 3.6699219 5.2793113 3.6660262 5.4257812 3.1328125 L 5.4316406 3.1328125 C 6.3219806 3.1328125 7.0449219 2.553679 7.0449219 1.8398438 C 7.0449219 1.1260083 6.3219806 0.54882815 5.4316406 0.54882812 z M 1.2714844 3.1171875 C 1.0921856 3.1419608 0.92525231 3.243989 0.82226562 3.4101562 C 0.64000103 3.7063876 0.73070076 4.0946676 1.0273438 4.2773438 C 1.1791623 4.370739 3.7051923 5.890625 7.4335938 5.890625 C 8.3930776 5.890625 9.4381575 5.7729386 10.537109 5.5214844 C 11.087226 7.1676028 12.0557 11.138347 10.769531 12.552734 C 10.288567 13.081425 9.449619 13.202992 8.2753906 12.912109 C 7.9339016 12.826531 7.5948276 13.033308 7.5117188 13.371094 C 7.4277863 13.70888 7.632917 14.051656 7.9707031 14.134766 C 8.4899309 14.263128 8.9700275 14.326172 9.4082031 14.326172 C 10.373013 14.326172 11.141931 14.01754 11.703125 13.400391 C 13.648183 11.258745 12.138163 6.330537 11.757812 5.1953125 C 12.247235 5.0372622 12.744897 4.8532362 13.251953 4.6289062 C 13.56917 4.4881964 13.712565 4.1149124 13.572266 3.796875 C 13.431145 3.4784262 13.058682 3.3358526 12.740234 3.4765625 C 6.6609079 6.1669198 1.737283 3.2363471 1.6875 3.2050781 C 1.613545 3.1598206 1.5338429 3.1313422 1.453125 3.1191406 C 1.3925865 3.1099895 1.3312506 3.1089297 1.2714844 3.1171875 z M 3.4882812 5.7636719 C 3.416692 6.0191715 3.3162689 6.3164068 3.203125 6.65625 C 2.6867771 8.2098192 1.90625 10.557578 1.90625 13.945312 L 3.1660156 13.945312 C 3.1660156 10.761648 3.9091401 8.5304959 4.4003906 7.0546875 C 4.5205289 6.6926269 4.6254684 6.3762953 4.7011719 6.1035156 L 3.4882812 5.7636719 z M 5.5136719 6.265625 C 5.5099719 6.3614888 5.5090425 6.5165333 5.5078125 6.7148438 C 5.5041095 7.2295459 5.4973658 8.0073218 5.4335938 8.8203125 L 5.4355469 8.8203125 C 5.4353728 8.822449 5.4337465 8.8240286 5.4335938 8.8261719 C 5.3945077 9.3853087 5.2261128 9.9488085 4.9492188 10.458984 C 4.7830001 10.764678 4.8970192 11.147826 5.203125 11.314453 C 5.2985773 11.366293 5.4007407 11.390625 5.5019531 11.390625 C 5.725361 11.390625 5.9426738 11.271201 6.0566406 11.060547 C 6.4191126 10.394026 6.6380241 9.6509382 6.6894531 8.9140625 C 6.7560694 8.0575417 6.7634779 7.221772 6.7675781 6.7226562 C 6.7684081 6.5432717 6.7681944 6.4036302 6.7714844 6.3164062 L 5.5136719 6.265625 z M 10.027344 6.3242188 L 8.7734375 6.4414062 C 8.9511763 8.3368758 8.7292059 10.322429 8.6074219 11.416016 L 9.8632812 11.529297 C 9.9871229 10.417606 10.217426 8.3476439 10.027344 6.3242188 z "
     id="path3379" /></svg>

<svg width="15px" height="15px" enable-background="new 0 0 15 15" version="1.1" viewBox="0 0 15 15" xmlns="http://www.w3.org/2000/svg">
 <path d="m9.2598 0.51172c-0.91791 0-1.6621 0.59721-1.6621 1.332 0 0.73646 0.7442 1.332 1.6621 1.332 0.00206 0 0.0049325-0.0019531 0.0078125-0.0019531 0.15141 0.55049 0.77539 0.55664 0.77539 0.55664 0-3e-7 -0.17674-0.4149 0.042969-0.73828 0.49701-0.22999 0.83594-0.65431 0.83594-1.1484 0-0.73482-0.7442-1.332-1.6621-1.332zm-3.8281 0.037109c-0.89116 0-1.6113 0.57718-1.6113 1.291 0 0.47891 0.32598 0.89265 0.80859 1.1152 0.13742 0.37605-0.023437 0.71484-0.023437 0.71484s0.67384-0.0038957 0.82031-0.53711h0.0058594c0.89034 0 1.6133-0.57913 1.6133-1.293 0-0.71384-0.72294-1.291-1.6133-1.291zm-4.1602 2.5684c-0.1793 0.024773-0.34623 0.1268-0.44922 0.29297-0.18226 0.29623-0.091565 0.68451 0.20508 0.86719 0.15182 0.093395 2.6778 1.6133 6.4062 1.6133 0.95948 0 2.0046-0.11769 3.1035-0.36914 0.55012 1.6461 1.5186 5.6169 0.23242 7.0312-0.48096 0.52869-1.3199 0.65026-2.4941 0.35938-0.34149-0.085578-0.68056 0.1212-0.76367 0.45898-0.083932 0.33779 0.1212 0.68056 0.45898 0.76367 0.51923 0.12836 0.99932 0.19141 1.4375 0.19141 0.96481 0 1.7337-0.30863 2.2949-0.92578 1.9451-2.1416 0.43504-7.0699 0.054687-8.2051 0.48942-0.15805 0.98708-0.34208 1.4941-0.56641 0.31722-0.14071 0.46061-0.51399 0.32031-0.83203-0.14112-0.31845-0.51358-0.46102-0.83203-0.32031-6.0793 2.6904-11.003-0.24022-11.053-0.27148-0.073955-0.045258-0.15366-0.073736-0.23438-0.085938-0.060538-0.0091511-0.12187-0.010211-0.18164-0.0019531zm2.2168 2.6465c-0.071589 0.2555-0.17201 0.55273-0.28516 0.89258-0.51635 1.5536-1.2969 3.9013-1.2969 7.2891h1.2598c0-3.1837 0.74312-5.4148 1.2344-6.8906 0.12014-0.36206 0.22508-0.67839 0.30078-0.95117l-1.2129-0.33984zm2.0254 0.50195c-0.0037 0.095864-0.0046294 0.25091-0.0058594 0.44922-0.003703 0.5147-0.010447 1.2925-0.074219 2.1055h0.0019531c-1.741e-4 0.0021365-0.0018004 0.0037161-0.0019531 0.0058594-0.039086 0.55914-0.20748 1.1226-0.48438 1.6328-0.16622 0.30569-0.0522 0.68884 0.25391 0.85547 0.095452 0.05184 0.19762 0.076172 0.29883 0.076172 0.22341 0 0.44072-0.11942 0.55469-0.33008 0.36247-0.66652 0.58138-1.4096 0.63281-2.1465 0.066616-0.85652 0.074025-1.6923 0.078125-2.1914 8.3e-4 -0.17938 6.163e-4 -0.31903 0.0039063-0.40625l-1.2578-0.050781zm4.5137 0.058594-1.2539 0.11719c0.17774 1.8955-0.044232 3.881-0.16602 4.9746l1.2559 0.11328c0.12384-1.1117 0.35414-3.1817 0.16406-5.2051z"/>
</svg>
